src/assets/images/template_image/11.svg

<svg width="48" height="48" fill="none" xmlns="http://www.w3.org/2000/svg"><path opacity=".2" d="M24 46c12.15 0 22-9.85 22-22S36.15 2 24 2 2 11.85 2 24s9.85 22 22 22z" fill="#7c72f2"/><path d="M15 21c-1.65 0-3 1.35-3 3s1.35 3 3 3 3-1.35 3-3-1.35-3-3-3zm18 0c-1.65 0-3 1.35-3 3s1.35 3 3 3 3-1.35 3-3-1.35-3-3-3zm-9 0c-1.65 0-3 1.35-3 3s1.35 3 3 3 3-1.35 3-3-1.35-3-3-3z" fill="#7c72f2"/></svg>

<svg width="48" height="48" viewBox="0 0 48 48" fill="none" xmlns="http://www.w3.org/2000/svg"><path opacity=".2" d="M24 46C36.1503 46 46 36.1503 46 24 46 11.8497 36.1503 2 24 2 11.8497 2 2 11.8497 2 24 2 36.1503 11.8497 46 24 46z" fill="#7c72f2"/><path d="M15 21C13.35 21 12 22.35 12 24 12 25.65 13.35 27 15 27 16.65 27 18 25.65 18 24 18 22.35 16.65 21 15 21zm18 0C31.35 21 30 22.35 30 24 30 25.65 31.35 27 33 27 34.65 27 36 25.65 36 24 36 22.35 34.65 21 33 21zm-9 0C22.35 21 21 22.35 21 24 21 25.65 22.35 27 24 27 25.65 27 27 25.65 27 24 27 22.35 25.65 21 24 21z" fill="#7c72f2"/></svg>
